X:1
T:Sinfonie Nr. 5
T:Sinfonie Nr. 5
T:P. Tchaikovsky
C:P. Tchaikovsky
L:1/8
M:12/8
K:D
V:1 bass nm="Tuba" snm="Tba."
V:1
 z6 z2 z (D,C,)B,, | (D,3 C,6) (A,,B,,)C, | (E,3 D,6) (D,E,)F, | G,3 G,2 G, G,3- G,2 G, | %4
 (G,3 F,3) z2 z (D,C,)B,, | (D,3 C,6) (A,,B,,)C, | (E,3 D,6) (D,E,)F, | ^G,3 G,2 G, G,3- G,2 G, | %8
 (^G,B,)A, A,6 (F,=G,A,) | (A,3 B,,6) (E,F,G,) | (G,3 A,,6) (D,E,F,) | F,3 F,2 F, F,3- F,2 E, | %12
 (2:3:2B,A,- A,(A,,B,,) (C,D,E, F,G,A,) | (A,3 B,,6) (E,F,G,) | (G,3 A,,6) (D,E,F,) | %15
 F,3 F,2 F, F,3- F,2 E, | (D,3 C,3/2) z/ z ^G,3 ^D,2 ^E, | F,3- F, z8 | z12 | z12 | z12 | z12 | %22
 z12 | z12 | z12 | z12 | z12 | z12 | z12 | z12 | z12 | z12 |] %32

